packages/core/src/svgs/tokens/mono/SCB.svg

<svg width="24" height="24" viewBox="0 0 24 24" fill="none" xmlns="http://www.w3.org/2000/svg">
<path fill-rule="evenodd" clip-rule="evenodd" d="M5.18249 8.73901H9.65639C9.93816 8.74585 10.2057 8.86409 10.4005 9.06782C10.5953 9.27155 10.7013 9.54417 10.6955 9.82597C10.6955 10.4259 10.2303 10.9129 9.65639 10.9129H8.739V11.7825H7.65205V9.39119H6.28684C5.95641 9.39119 6.01292 9.69118 6.08684 9.80423C6.33466 10.0651 6.83466 10.7042 6.83466 11.1651C6.83466 11.6303 6.46944 11.7738 6.28684 11.7825H3.73901V10.9129H5.29988C5.62162 10.9129 5.49989 10.6868 5.39553 10.5868L4.77815 9.76075C4.45206 9.04336 4.91292 8.77814 5.18249 8.73901ZM8.739 9.39119H9.31292C9.47379 9.39119 9.60857 9.53901 9.60857 9.71727C9.60857 9.89553 9.47813 10.0434 9.31292 10.0434H8.739V9.39119ZM13.2781 8.73901H11.5912L10.6955 11.7825H11.752L11.8694 11.3477H13.0607L13.1912 11.7825H14.1738L13.2781 8.73901ZM12.8651 10.6956H12.052L12.3868 9.47814H12.4999L12.8651 10.6956ZM15.4781 8.73901C15.0746 8.73901 14.6874 8.89933 14.4021 9.18472C14.1167 9.4701 13.9564 9.85715 13.9564 10.2608C13.9564 10.6643 14.1167 11.0514 14.4021 11.3367C14.6874 11.6222 15.0746 11.7825 15.4781 11.7825H16.7825V10.9129H15.4781C15.3052 10.9129 15.1393 10.8442 15.017 10.7219C14.8947 10.5996 14.8259 10.4337 14.8259 10.2608C14.8259 10.0878 14.8947 9.9219 15.017 9.79959C15.1393 9.67729 15.3052 9.60857 15.4781 9.60857H16.7825V8.73901H15.4781ZM19.8259 8.73901V9.60857H18.0868V10.0434H19.3911V10.4782H18.0868V10.9129H20.6955V11.7825H17.2173V8.73901H19.8259Z" fill="white"/>
<path fill-rule="evenodd" clip-rule="evenodd" d="M4.79129 12.739L4.13477 13.5129C4.08213 13.3703 3.9813 13.2505 3.84971 13.1743C3.71813 13.0982 3.56406 13.0703 3.41414 13.0957C3.26423 13.121 3.12788 13.198 3.02868 13.3133C2.92949 13.4285 2.87367 13.5747 2.87088 13.7268C2.86809 13.8787 2.91851 14.027 3.0134 14.1458C3.10831 14.2646 3.24174 14.3465 3.39062 14.3774C3.53951 14.4082 3.69449 14.3861 3.82879 14.3148C3.96308 14.2435 4.06823 14.1275 4.12608 13.9868L4.82608 14.7042C4.67301 14.88 4.48387 15.0207 4.27155 15.1166C4.05921 15.2127 3.82868 15.2618 3.59564 15.2608C3.18239 15.2701 2.78229 15.1151 2.48315 14.8298C2.18402 14.5446 2.01026 14.1523 2 13.7391C2 12.8999 2.71303 12.2173 3.59564 12.2173C4.0739 12.2173 4.49999 12.4173 4.79129 12.739ZM18.5217 12.2173H19.6086L20.2609 13.0868L20.913 12.2173H22L20.6956 13.9564V15.2608H19.826V13.9564L18.5217 12.2173ZM8.08694 13.7391C8.08694 13.9388 8.04758 14.1367 7.9711 14.3214C7.89463 14.506 7.78254 14.6737 7.64124 14.815C7.49993 14.9563 7.33217 15.0684 7.14755 15.1449C6.96292 15.2214 6.76504 15.2608 6.56521 15.2608C6.36536 15.2608 6.16749 15.2214 5.98286 15.1449C5.79823 15.0684 5.63048 14.9563 5.48918 14.815C5.34787 14.6737 5.23578 14.506 5.15931 14.3214C5.08282 14.1367 5.04347 13.9388 5.04347 13.7391C5.04347 13.3354 5.20379 12.9484 5.48918 12.663C5.77455 12.3776 6.16161 12.2173 6.56521 12.2173C6.96879 12.2173 7.35585 12.3776 7.64124 12.663C7.92661 12.9484 8.08694 13.3354 8.08694 13.7391ZM7.21737 13.7391C7.21737 13.912 7.14866 14.0779 7.02635 14.2001C6.90406 14.3225 6.73817 14.3912 6.56521 14.3912C6.39224 14.3912 6.22636 14.3225 6.10405 14.2001C5.98174 14.0779 5.91303 13.912 5.91303 13.7391C5.91303 13.5661 5.98174 13.4002 6.10405 13.2779C6.22636 13.1555 6.39224 13.0868 6.56521 13.0868C6.73817 13.0868 6.90406 13.1555 7.02635 13.2779C7.14866 13.4002 7.21737 13.5661 7.21737 13.7391ZM17.4348 15.2608C17.8384 15.2608 18.2254 15.1004 18.5108 14.815C18.7961 14.5296 18.9565 14.1426 18.9565 13.7391C18.9565 13.3354 18.7961 12.9484 18.5108 12.663C18.2254 12.3776 17.8384 12.2173 17.4348 12.2173C17.0311 12.2173 16.6441 12.3776 16.3587 12.663C16.0733 12.9484 15.9131 13.3354 15.9131 13.7391C15.9131 14.1426 16.0733 14.5296 16.3587 14.815C16.6441 15.1004 17.0311 15.2608 17.4348 15.2608ZM17.4348 14.3912C17.6077 14.3912 17.7736 14.3225 17.8959 14.2001C18.0182 14.0779 18.0869 13.912 18.0869 13.7391C18.0869 13.5661 18.0182 13.4002 17.8959 13.2779C17.7736 13.1555 17.6077 13.0868 17.4348 13.0868C17.2618 13.0868 17.0959 13.1555 16.9736 13.2779C16.8513 13.4002 16.7826 13.5661 16.7826 13.7391C16.7826 13.912 16.8513 14.0779 16.9736 14.2001C17.0959 14.3225 17.2618 14.3912 17.4348 14.3912ZM8.9565 15.2608L8.08694 12.2173H8.9565L9.39128 13.5216L9.82606 12.2173H10.6956L11.1304 13.5216L11.6347 12.2173H14.7695C14.9257 12.2158 15.0778 12.2655 15.2029 12.3588C15.328 12.4522 15.419 12.5841 15.462 12.7341C15.5049 12.8841 15.4974 13.0441 15.4407 13.1896C15.3839 13.335 15.281 13.4577 15.1478 13.539C15.3388 13.619 15.4961 13.7627 15.5931 13.9457C15.6901 14.1286 15.7206 14.3395 15.6796 14.5424C15.6386 14.7454 15.5286 14.9279 15.3682 15.0588C15.2078 15.1898 15.007 15.2612 14.8 15.2608H12.4348V13.0868H12.2609L11.5652 15.2608H10.6956L10.2174 14.1781L9.82606 15.2608H8.9565ZM13.5217 13.0868H14.3043C14.362 13.0868 14.4173 13.1098 14.4581 13.1505C14.4988 13.1913 14.5217 13.2466 14.5217 13.3042C14.5217 13.3619 14.4988 13.4172 14.4581 13.4579C14.4173 13.4987 14.362 13.5216 14.3043 13.5216H13.5217V13.0868ZM13.5217 13.9564H14.2826C14.3691 13.9564 14.452 13.9907 14.5132 14.0519C14.5743 14.1131 14.6086 14.196 14.6086 14.2825C14.6086 14.369 14.5743 14.4519 14.5132 14.5131C14.452 14.5742 14.3691 14.6086 14.2826 14.6086H13.5217V13.9564Z" fill="white"/>
</svg>

<svg xmlns="http://www.w3.org/2000/svg" width="24" height="24" fill="none" viewBox="0 0 24 24">
    <path fill="#fff" fill-rule="evenodd" d="M5.182 8.739h4.474a1.065 1.065 0 0 1 1.04 1.087c0 .6-.466 1.087-1.04 1.087H8.74v.87H7.652V9.39H6.287c-.33 0-.274.3-.2.413.248.261.748.9.748 1.361a.584.584 0 0 1-.548.618H3.739v-.87h1.56c.323 0 .2-.226.097-.326l-.618-.826c-.326-.718.135-.983.404-1.022m3.557.652h.574c.16 0 .296.148.296.326s-.13.326-.296.326h-.574zm4.54-.652H11.59l-.896 3.044h1.057l.117-.435h1.192l.13.434h.983zm-.414 1.957h-.813l.335-1.218h.113zm2.613-1.957a1.522 1.522 0 1 0 0 3.044h1.304v-.87h-1.304a.652.652 0 0 1 0-1.304h1.304v-.87zm4.348 0v.87h-1.74v.434h1.305v.435h-1.304v.435h2.608v.87h-3.478V8.739zM4.791 12.739l-.656.774a.652.652 0 1 0-.009.474l.7.717a1.62 1.62 0 0 1-1.23.557A1.56 1.56 0 0 1 2 13.739c0-.84.713-1.522 1.596-1.522.478 0 .904.2 1.195.522m13.73-.522h1.088l.652.87.652-.87H22l-1.304 1.74v1.304h-.87v-1.305zM8.088 13.74a1.522 1.522 0 1 1-3.044 0 1.522 1.522 0 0 1 3.044 0m-.87 0a.652.652 0 1 1-1.303 0 .652.652 0 0 1 1.303 0m10.218 1.522a1.522 1.522 0 1 0 0-3.044 1.522 1.522 0 0 0 0 3.044m0-.87a.652.652 0 1 0 0-1.303.652.652 0 0 0 0 1.303m-8.478.87-.87-3.044h.87l.434 1.305.435-1.305h.87l.434 1.305.505-1.305h3.135a.713.713 0 0 1 .378 1.322.896.896 0 0 1-.348 1.722h-2.365v-2.174h-.174l-.696 2.174h-.87l-.478-1.083-.39 1.083zm4.565-2.174h.782a.218.218 0 0 1 0 .435h-.782zm0 .87h.76a.326.326 0 1 1 0 .652h-.76z" clip-rule="evenodd"/>
</svg>
